X:1036
T: Kapitány úr kihozta
Q:1/4=96
M:4/4
L:1/4
K:G
G/G/A/A/ B/B/ G | c/c/d/d/ e/d/c/B/ | A<G G z |
d/d/e/e/ f/f/ d | g/g/a/a/ b/b/g/e/ | f d d z |
geee | ef a<g | d/e/d/B/ G z | g/g/f/e/ d z |
G/G/A/A/ B/A/G/G/ | A/B/c/d/ e/d/c/B/ | A<G G z |


